; generated by PrusaSlicer 2.5.2+win64 on 2023-05-20 at 01:09:27 UTC


;
;
; 

; external perimeters extrusion width = 0.45mm
; perimeters extrusion width = 0.45mm
; infill extrusion width = 0.45mm
; solid infill extrusion width = 0.45mm
; top infill extrusion width = 0.40mm
; first layer extrusion width = 0.42mm

; external perimeters extrusion width = 0.45mm
; perimeters extrusion width = 0.45mm
; infill extrusion width = 0.45mm
; solid infill extrusion width = 0.45mm
; top infill extrusion width = 0.40mm
; first layer extrusion width = 0.42mm

M73 P0 R67
M73 Q0 S68
M201 X1000 Y1000 Z200 E5000 ; sets maximum accelerations, mm/sec^2
M203 X200 Y200 Z12 E120 ; sets maximum feedrates, mm / sec
M204 P1250 R1250 T1250 ; sets acceleration (P, T) and retract acceleration (R), mm/sec^2
M205 X8.00 Y8.00 Z0.40 E4.50 ; sets the jerk limits, mm/sec
M205 S0 T0 ; sets the minimum extruding and travel feed rate, mm/sec
M107
;TYPE:Custom
M862.3 P "MK3S" ; printer model check
M862.1 P0.4 ; nozzle diameter check
M115 U3.11.0 ; tell printer latest fw version
G90 ; use absolute coordinates
M83 ; extruder relative mode
M104 S215 ; set extruder temp
M140 S60 ; set bed temp
M190 S60 ; wait for bed temp
M109 S215 ; wait for extruder temp
G28 W ; home all without mesh bed level
G80 ; mesh bed leveling

G1 Z0.2 F720
G1 Y-3 F1000 ; go outside print area
G92 E0
G1 X60 E9 F1000 ; intro line
G1 X100 E12.5 F1000 ; intro line

G92 E0
M221 S95

; Don't change E values below. Excessive value can damage the printer.
M907 E430 ; set extruder motor current
G21 ; set units to millimeters
G90 ; use absolute coordinates
M83 ; use relative distances for extrusion
M900 K0.05 ; Filament gcode LA 1.5
M900 K30 ; Filament gcode LA 1.0
M107
;LAYER_CHANGE
;Z:0.2
;HEIGHT:0.2
;BEFORE_LAYER_CHANGE
G92 E0.0
;0.2


G1 E-.8 F2100
M73 Q0 S67
G1 Z.4 F720
;AFTER_LAYER_CHANGE
;0.2
G1 X90.942 Y87.748 F10800
G1 Z.2 F720
G1 E.8 F2100
M204 S800
;TYPE:Skirt/Brim
;WIDTH:0.42
G1 F1200
G1 X106.786 Y71.327 E.71546
G1 X107.486 Y70.827 E.02698
G1 X111.371 Y69.001 E.1346
G1 X113.214 Y68.925 E.05782
G1 X123.215 Y72.666 E.33481
G1 X123.791 Y72.977 E.02053
G1 X150.491 Y92.621 E1.0393
G1 X151.248 Y93.557 E.03776
G1 X152.996 Y97.424 E.13307
G1 X153.149 Y98.923 E.04724
G1 X144.125 Y139.166 E1.2931
G1 X142.24 Y144.717 E.1838
G1 X141.092 Y146.76 E.07348
G1 X139.899 Y148.6 E.06878
G1 X136.371 Y152.453 E.16379
G1 X134.618 Y153.815 E.06961
G1 X132.357 Y155.316 E.08508
G1 X127.559 Y157.398 E.16399
G1 X125.443 Y157.925 E.06839
G1 X123.142 Y158.348 E.07335
G1 X117.074 Y158.296 E.19025
G1 X114.789 Y157.833 E.07311
G1 X112.68 Y157.273 E.06841
G1 X107.931 Y155.105 E.16368
G1 X105.685 Y153.566 E.08539
G1 X103.938 Y152.154 E.07042
G1 X100.499 Y148.264 E.16278
G1 X99.33 Y146.393 E.06918
G1 X98.206 Y144.317 E.07401
G1 X80.213 Y109.359 E1.23275
G1 X79.483 Y107.468 E.06358
G1 X79.133 Y105.586 E.06
G1 X79.12 Y103.724 E.05839
G1 X79.395 Y102.031 E.05378
G1 X80.407 Y98.982 E.10072
G1 X80.942 Y98.113 E.03201
G1 X90.9 Y87.791 E.4497
M204 S1000
;WIPE_START
G1 F8640
G1 X93.186 Y85.423 E-.76
;WIPE_END
G1 E-.04 F2100
G1 Z.6 F720
G1 X87.274 Y98.655 F10800
G1 Z.2 F720
G1 E.8 F2100
M204 S800
G1 F1200
G1 X94.829 Y101.353 E.25154
G1 X95.978 Y102.111 E.04315
G1 X96.802 Y103.069 E.03964
G1 X97.356 Y104.226 E.04021
G1 X97.581 Y105.492 E.04033
G1 X97.512 Y106.572 E.03392
G1 X97.203 Y107.577 E.03295
G1 X96.73 Y108.555 E.03409
G1 X96.171 Y109.403 E.03183
G1 X95.305 Y110.378 E.04086
G1 X94.31 Y111.187 E.04021
G1 X93.529 Y111.661 E.02865
G1 X92.766 Y112.016 E.02639
G1 X92.032 Y112.273 E.02439
G1 X91.27 Y112.458 E.02458
G1 X90.482 Y112.567 E.02494
G1 X89.696 Y112.599 E.02467
G1 X88.831 Y112.545 E.02718
G1 X87.939 Y112.389 E.02841
G1 X86.721 Y111.999 E.04008
G1 X86.026 Y111.674 E.02408
G1 X85.289 Y111.233 E.02693
G1 X84.655 Y110.759 E.0248
G1 X84.068 Y110.221 E.02499
G1 X83.535 Y109.627 E.025
G1 X83.065 Y108.982 E.02502
G1 X82.666 Y108.304 E.02468
G1 X82.306 Y107.519 E.02708
G1 X82.024 Y106.661 E.02832
G1 X81.838 Y105.771 E.02849
G1 X81.753 Y104.812 E.03019
G1 X81.792 Y103.766 E.03283
G1 X81.964 Y102.742 E.03256
G1 X82.355 Y101.511 E.04048
G1 X82.936 Y100.521 E.03601
G1 X83.55 Y99.865 E.02817
G1 X84.279 Y99.329 E.02838
G1 X85.707 Y98.751 E.04827
G1 X86.467 Y98.648 E.02407
G1 X87.214 Y98.654 E.0234
M204 S1000
G1 X87.211 Y99.031 F10800
M204 S800
G1 F1200
G1 X94.642 Y101.681 E.24737
G1 X95.71 Y102.377 E.03996
G1 X96.499 Y103.295 E.03798
G1 X97.004 Y104.363 E.03702
G1 X97.205 Y105.533 E.03723
G1 X97.137 Y106.523 E.03112
G1 X96.847 Y107.45 E.03046
G1 X96.408 Y108.359 E.03165
G1 X95.879 Y109.163 E.03019
G1 X95.055 Y110.095 E.039
G1 X94.103 Y110.871 E.03851
G1 X93.342 Y111.334 E.02791
G1 X92.633 Y111.664 E.02453
G1 X91.933 Y111.908 E.02324
G1 X91.208 Y112.085 E.02341
G1 X90.458 Y112.191 E.02375
G1 X89.691 Y112.222 E.02407
G1 X88.886 Y112.172 E.02529
G1 X88.016 Y112.02 E.02767
G1 X86.87 Y111.652 E.03775
G1 X86.21 Y111.345 E.02281
G1 X85.506 Y110.925 E.02571
G1 X84.903 Y110.474 E.02361
G1 X84.342 Y109.962 E.02383
G1 X83.834 Y109.397 E.02382
G1 X83.385 Y108.783 E.02384
G1 X83.005 Y108.138 E.02347
G1 X82.654 Y107.371 E.02644
G1 X82.385 Y106.553 E.02699
G1 X82.21 Y105.706 E.02715
G1 X82.13 Y104.814 E.02807
G1 X82.166 Y103.816 E.0313
G1 X82.334 Y102.817 E.03177
G1 X82.692 Y101.682 E.0373
G1 X83.226 Y100.763 E.03335
G1 X83.813 Y100.136 E.02692
G1 X84.483 Y99.647 E.02599
G1 X85.782 Y99.122 E.04393
G1 X86.478 Y99.025 E.02205
G1 X87.151 Y99.031 E.02108
M204 S1000
G1 X87.147 Y99.408 F10800
M204 S800
G1 F1200
G1 X87.204 Y99.408 E.00177
G1 X94.456 Y102.01 E.24158
G1 X95.443 Y102.645 E.03681
G1 X96.17 Y103.48 E.0347
G1 X96.652 Y104.5 E.03536
G1 X96.83 Y105.572 E.03406
G1 X96.763 Y106.472 E.02832
G1 X96.492 Y107.322 E.02798
G1 X96.085 Y108.163 E.02927
G1 X95.587 Y108.925 E.02855
G1 X94.804 Y109.813 E.03713
G1 X93.896 Y110.556 E.03679
G1 X93.156 Y111.006 E.02716
G1 X92.483 Y111.318 E.02325
G1 X91.835 Y111.544 E.02154
G1 X91.146 Y111.713 E.02223
G1 X90.415 Y111.816 E.02315
G1 X89.686 Y111.845 E.02288
G1 X88.94 Y111.799 E.02341
G1 X88.094 Y111.65 E.02693
G1 X87.018 Y111.305 E.03545
G1 X86.395 Y111.016 E.02153
G1 X85.708 Y110.606 E.02508
G1 X85.136 Y110.178 E.02239
G1 X84.616 Y109.702 E.02211
G1 X84.132 Y109.166 E.02265
G1 X83.705 Y108.583 E.02266
G1 X83.344 Y107.972 E.02225
G1 X83.001 Y107.224 E.02579
G1 X82.747 Y106.447 E.02564
G1 X82.581 Y105.64 E.02582
G1 X82.508 Y104.815 E.02598
G1 X82.54 Y103.866 E.02977
G1 X82.704 Y102.892 E.03097
G1 X83.03 Y101.852 E.03417
G1 X83.517 Y101.004 E.03065
G1 X84.076 Y100.407 E.02565
G1 X84.685 Y99.966 E.02358
G1 X85.858 Y99.492 E.03966
G1 X86.489 Y99.402 E.02
G1 X87.087 Y99.407 E.01875
M204 S1000
G1 X87.084 Y99.785 F10800
M204 S800
G1 F1200
G1 X87.169 Y99.785 E.00265
G1 X94.309 Y102.357 E.23795
G1 X95.178 Y102.915 E.03239
G1 X95.842 Y103.668 E.03147
G1 X96.284 Y104.589 E.03203
G1 X96.454 Y105.61 E.03246
G1 X96.389 Y106.419 E.02544
G1 X96.138 Y107.193 E.02551
G1 X95.752 Y107.986 E.02767
G1 X95.279 Y108.706 E.027
G1 X94.532 Y109.552 E.03538
G1 X93.668 Y110.255 E.03493
G1 X92.988 Y110.668 E.02496
G1 X92.333 Y110.971 E.02263
G1 X91.719 Y111.185 E.02038
G1 X91.066 Y111.345 E.02108
G1 X90.372 Y111.442 E.02196
G1 X89.681 Y111.467 E.02169
G1 X88.974 Y111.423 E.0222
G1 X88.197 Y111.287 E.02474
G1 X87.145 Y110.95 E.03466
G1 X86.563 Y110.678 E.02011
G1 X85.91 Y110.288 E.02387
G1 X85.37 Y109.882 E.02117
G1 X84.877 Y109.431 E.02096
G1 X84.419 Y108.921 E.02149
G1 X84.015 Y108.368 E.02148
G1 X83.682 Y107.805 E.02049
G1 X83.356 Y107.097 E.02446
G1 X83.109 Y106.34 E.02495
G1 X82.953 Y105.576 E.02446
G1 X82.884 Y104.794 E.0246
G1 X82.917 Y103.892 E.02829
G1 X83.073 Y102.967 E.02942
G1 X83.368 Y102.02 E.0311
G1 X83.808 Y101.245 E.02792
G1 X84.338 Y100.679 E.02434
G1 X84.886 Y100.286 E.02115
G1 X85.934 Y99.862 E.03545
G1 X86.501 Y99.78 E.01794
G1 X87.024 Y99.784 E.01641
M204 S1000
G1 X87.021 Y100.161 F10800
M204 S800
G1 F1200
G1 X87.133 Y100.162 E.00352
G1 X94.161 Y102.705 E.23433
G1 X94.915 Y103.186 E.02805
G1 X95.514 Y103.856 E.02817
G1 X95.932 Y104.727 E.0303
G1 X96.078 Y105.645 E.02916
G1 X96.016 Y106.363 E.0226
G1 X95.784 Y107.061 E.02306
G1 X95.418 Y107.81 E.02611
G1 X94.972 Y108.487 E.02545
G1 X94.261 Y109.29 E.03362
G1 X93.441 Y109.954 E.03308
G1 X92.82 Y110.33 E.02278
G1 X92.183 Y110.625 E.022
G1 X91.604 Y110.826 E.0192
G1 X90.987 Y110.976 E.01994
G1 X90.331 Y111.067 E.02076
G1 X89.677 Y111.09 E.0205
G1 X89.009 Y111.047 E.021
G1 X88.3 Y110.924 E.02256
G1 X87.272 Y110.594 E.03386
G1 X86.733 Y110.341 E.01867
G1 X86.112 Y109.97 E.02267
G1 X85.604 Y109.587 E.01994
G1 X85.139 Y109.159 E.01981
G1 X84.706 Y108.676 E.02034
G1 X84.325 Y108.153 E.02031
G1 X84.02 Y107.638 E.01875
G1 X83.711 Y106.968 E.02314
G1 X83.476 Y106.253 E.0236
G1 X83.328 Y105.532 E.0231
G1 X83.261 Y104.772 E.0239
G1 X83.29 Y103.943 E.02602
G1 X83.443 Y103.042 E.02865
G1 X83.707 Y102.186 E.02809
G1 X84.099 Y101.486 E.02515
G1 X84.6 Y100.951 E.023
G1 X85.086 Y100.606 E.01868
G1 X86.012 Y100.231 E.03133
G1 X86.513 Y100.157 E.01586
G1 X86.961 Y100.161 E.01406
M204 S1000
G1 X86.958 Y100.538 F10800
M204 S800
G1 F1200
G1 X87.098 Y100.539 E.00439
G1 X94.013 Y103.052 E.2307
G1 X94.654 Y103.458 E.02379
G1 X95.188 Y104.047 E.02491
G1 X95.564 Y104.815 E.02681
G1 X95.702 Y105.682 E.02753
G1 X95.651 Y106.266 E.01841
G1 X95.44 Y106.908 E.02118
G1 X95.097 Y107.612 E.02456
G1 X94.665 Y108.268 E.02462
G1 X93.99 Y109.027 E.03185
G1 X93.215 Y109.652 E.03121
G1 X92.634 Y110.002 E.02125
G1 X92.034 Y110.279 E.02073
G1 X91.49 Y110.467 E.01804
G1 X90.908 Y110.607 E.01879
G1 X90.289 Y110.692 E.01958
G1 X89.692 Y110.713 E.01873
G1 X89.043 Y110.672 E.02039
G1 X88.402 Y110.561 E.02038
G1 X87.399 Y110.239 E.03305
G1 X86.903 Y110.004 E.01722
G1 X86.316 Y109.652 E.02147
G1 X85.839 Y109.292 E.01872
G1 X85.414 Y108.901 E.01811
G1 X84.993 Y108.432 E.01975
G1 X84.635 Y107.939 E.01911
G1 X84.35 Y107.455 E.0176
G1 X84.058 Y106.821 E.02191
M73 P0 R66
G1 X83.838 Y106.147 E.02223
G1 X83.699 Y105.467 E.02174
G1 X83.637 Y104.752 E.02252
G1 X83.664 Y103.994 E.02378
G1 X83.813 Y103.117 E.02789
G1 X84.047 Y102.35 E.02513
G1 X84.39 Y101.726 E.02233
G1 X84.862 Y101.223 E.02161
G1 X85.284 Y100.928 E.01618
G1 X86.092 Y100.6 E.02731
G1 X86.525 Y100.534 E.01375
G1 X86.898 Y100.537 E.01169
M204 S1000
G1 X86.895 Y100.914 F10800
M204 S800
G1 F1200
G1 X87.062 Y100.916 E.00525
G1 X93.865 Y103.399 E.22707
G1 X94.395 Y103.733 E.01963
G1 X94.861 Y104.238 E.02157
G1 X95.212 Y104.954 E.02498
G1 X95.325 Y105.713 E.02406
G1 X95.278 Y106.207 E.01559
G1 X95.086 Y106.776 E.01881
G1 X94.775 Y107.416 E.02232
G1 X94.373 Y108.029 E.02298
G1 X93.74 Y108.744 E.02995
G1 X93.008 Y109.336 E.02951
G1 X92.467 Y109.664 E.01985
G1 X91.885 Y109.933 E.0201
G1 X91.393 Y110.102 E.01631
G1 X90.829 Y110.238 E.0182
G1 X90.248 Y110.317 E.01838
G1 X89.706 Y110.336 E.01699
G1 X89.097 Y110.298 E.01914
G1 X88.48 Y110.192 E.01964
G1 X87.548 Y109.893 E.03067
G1 X87.088 Y109.676 E.01596
G1 X86.534 Y109.344 E.02024
G1 X86.087 Y109.007 E.01756
G1 X85.688 Y108.642 E.01697
G1 X85.292 Y108.202 E.01855
G1 X84.955 Y107.739 E.01796
G1 X84.688 Y107.288 E.01642
G1 X84.413 Y106.692 E.02058
G1 X84.205 Y106.06 E.02088
G1 X84.074 Y105.423 E.02039
G1 X84.015 Y104.752 E.02111
G1 X84.038 Y104.044 E.02222
G1 X84.183 Y103.192 E.02709
G1 X84.402 Y102.479 E.02339
G1 X84.682 Y101.967 E.01831
G1 X85.122 Y101.497 E.02019
G1 X85.481 Y101.25 E.01363
G1 X86.172 Y100.969 E.02341
G1 X86.538 Y100.911 E.0116
G1 X86.835 Y100.914 E.0093
M204 S1000
G1 X86.831 Y101.291 F10800
M204 S800
G1 F1200
G1 X87.026 Y101.292 E.00611
G1 X93.717 Y103.747 E.22344
G1 X94.138 Y104.011 E.01559
G1 X94.536 Y104.431 E.01815
G1 X94.86 Y105.092 E.02307
G1 X94.949 Y105.741 E.02055
G1 X94.914 Y106.107 E.01155
G1 X94.733 Y106.644 E.01775
G1 X94.452 Y107.22 E.02009
G1 X94.081 Y107.79 E.02134
G1 X93.49 Y108.462 E.02805
G1 X92.802 Y109.02 E.02779
G1 X92.281 Y109.336 E.01909
G1 X91.736 Y109.586 E.0188
G1 X91.296 Y109.738 E.0146
G1 X90.75 Y109.87 E.01761
G1 X90.207 Y109.942 E.01717
G1 X89.72 Y109.96 E.01529
G1 X89.15 Y109.925 E.01788
G1 X88.557 Y109.823 E.01889
G1 X87.697 Y109.546 E.0283
G1 X87.273 Y109.347 E.0147
G1 X86.752 Y109.037 E.019
G1 X86.334 Y108.723 E.01639
G1 X85.962 Y108.382 E.01583
G1 X85.591 Y107.972 E.01734
G1 X85.265 Y107.524 E.01736
G1 X85.026 Y107.121 E.0147
G1 X84.767 Y106.563 E.01927
G1 X84.572 Y105.972 E.01952
G1 X84.448 Y105.378 E.01903
G1 X84.392 Y104.752 E.0197
G1 X84.412 Y104.094 E.02065
G1 X84.552 Y103.267 E.02628
G1 X84.756 Y102.608 E.02165
G1 X84.974 Y102.206 E.01432
G1 X85.382 Y101.771 E.01873
G1 X85.674 Y101.574 E.01103
G1 X86.256 Y101.338 E.01968
G1 X86.552 Y101.288 E.00942
G1 X86.771 Y101.29 E.00689
M204 S1000
G1 X86.768 Y101.667 F10800
M204 S800
G1 F1200
G1 X86.991 Y101.669 E.00697
G1 X93.569 Y104.094 E.21982
G1 X93.881 Y104.288 E.01153
G1 X94.241 Y104.668 E.01641
G1 X94.506 Y105.224 E.01931
G1 X94.572 Y105.765 E.01711
G1 X94.549 Y106.008 E.00764
G1 X94.379 Y106.512 E.01669
G1 X94.129 Y107.025 E.01789
G1 X93.788 Y107.553 E.01971
G1 X93.239 Y108.179 E.02611
G1 X92.574 Y108.719 E.02685
G1 X92.096 Y109.007 E.01751
G1 X91.588 Y109.239 E.01753
G1 X91.199 Y109.373 E.0129
G1 X90.671 Y109.501 E.01701
G1 X90.167 Y109.567 E.01595
G1 X89.733 Y109.583 E.01363
G1 X89.204 Y109.552 E.01661
G1 X88.634 Y109.453 E.01814
G1 X87.846 Y109.199 E.02596
G1 X87.457 Y109.018 E.01345
G1 X86.97 Y108.729 E.01776
G1 X86.581 Y108.438 E.01523
G1 X86.235 Y108.122 E.0147
G1 X85.89 Y107.741 E.01611
G1 X85.575 Y107.309 E.01676
G1 X85.364 Y106.952 E.013
G1 X85.121 Y106.434 E.01796
G1 X84.939 Y105.885 E.01814
G1 X84.82 Y105.312 E.01833
G1 X84.769 Y104.731 E.0183
G1 X84.789 Y104.119 E.01918
G1 X84.916 Y103.367 E.02392
G1 X85.111 Y102.739 E.02063
G1 X85.292 Y102.41 E.01176
G1 X85.614 Y102.069 E.0147
G1 X85.836 Y101.915 E.00849
G1 X86.377 Y101.695 E.0183
G1 X86.564 Y101.666 E.00592
G1 X86.708 Y101.667 E.00454
M204 S1000
G1 X86.705 Y102.044 F10800
M204 S800
G1 F1200
G1 X86.954 Y102.046 E.00782
G1 X93.421 Y104.441 E.21623
G1 X93.625 Y104.566 E.00748
G1 X93.947 Y104.906 E.01468
G1 X94.135 Y105.3 E.01371
G1 X94.196 Y105.791 E.01551
G1 X94.185 Y105.909 E.00372
G1 X94.035 Y106.359 E.01487
G1 X93.806 Y106.831 E.01644
G1 X93.494 Y107.316 E.01808
G1 X92.988 Y107.898 E.02417
G1 X92.368 Y108.404 E.0251
G1 X91.929 Y108.669 E.01608
G1 X91.455 Y108.886 E.01634
G1 X91.1 Y109.009 E.01178
G1 X90.612 Y109.128 E.01576
G1 X90.127 Y109.192 E.01533
G1 X89.729 Y109.205 E.0125
G1 X89.257 Y109.178 E.0148
G1 X88.711 Y109.084 E.01738
G1 X87.994 Y108.852 E.02363
G1 X87.641 Y108.689 E.01221
G1 X87.188 Y108.421 E.0165
G1 X86.815 Y108.141 E.01462
G1 X86.508 Y107.862 E.01302
G1 X86.188 Y107.51 E.01489
G1 X85.894 Y107.109 E.0156
G1 X85.701 Y106.784 E.01186
G1 X85.475 Y106.303 E.01664
G1 X85.305 Y105.796 E.01677
G1 X85.194 Y105.267 E.01695
G1 X85.146 Y104.73 E.01689
G1 X85.163 Y104.168 E.01763
G1 X85.28 Y103.466 E.02232
G1 X85.465 Y102.867 E.01965
G1 X85.584 Y102.651 E.00774
G1 X85.874 Y102.342 E.0133
G1 X86 Y102.255 E.00478
G1 X86.464 Y102.063 E.01575
G1 X86.645 Y102.043 E.00572
M204 S1000
G1 X86.642 Y102.42 F10800
M204 S800
G1 F1200
G1 X86.918 Y102.423 E.00867
G1 X93.276 Y104.79 E.2127
G1 X93.371 Y104.845 E.00345
G1 X93.65 Y105.141 E.01274
G1 X93.778 Y105.424 E.00977
G1 X93.818 Y105.805 E.01199
G1 X93.682 Y106.226 E.01387
G1 X93.482 Y106.638 E.01436
G1 X93.2 Y107.079 E.01643
G1 X92.714 Y107.638 E.02321
G1 X92.162 Y108.087 E.02234
G1 X91.743 Y108.34 E.01533
G1 X91.322 Y108.533 E.01451
G1 X91.001 Y108.645 E.01067
G1 X90.552 Y108.756 E.01449
G1 X90.087 Y108.817 E.0147
G1 X89.725 Y108.828 E.01137
G1 X89.311 Y108.805 E.01301
G1 X88.789 Y108.715 E.01662
G1 X88.141 Y108.505 E.02132
G1 X87.823 Y108.359 E.01098
G1 X87.405 Y108.112 E.01521
G1 X87.048 Y107.845 E.014
G1 X86.78 Y107.601 E.01136
G1 X86.486 Y107.279 E.01367
G1 X86.213 Y106.907 E.01445
G1 X86.038 Y106.614 E.01072
G1 X85.829 Y106.172 E.01533
G1 X85.672 Y105.706 E.0154
G1 X85.569 Y105.221 E.01557
G1 X85.523 Y104.729 E.01549
G1 X85.537 Y104.216 E.01607
G1 X85.644 Y103.565 E.0207
G1 X85.821 Y102.995 E.01872
G1 X85.876 Y102.89 E.00371
G1 X86.135 Y102.615 E.01183
G1 X86.582 Y102.423 E.01527
